icons/uninstall.svg

<svg width="24" height="24" viewBox="0 0 24 24" fill="none" xmlns="http://www.w3.org/2000/svg">
<path fill-rule="evenodd" clip-rule="evenodd" d="M3 3C3 2.44772 3.44772 2 4 2H7C7.55228 2 8 2.44772 8 3C8 3.55228 7.55228 4 7 4H5V14H19V4H17C16.4477 4 16 3.55228 16 3C16 2.44772 16.4477 2 17 2H20C20.5523 2 21 2.44772 21 3V21C21 21.5523 20.5523 22 20 22H4C3.44772 22 3 21.5523 3 21V3ZM19 16H5V20H19V16ZM11.2929 2.29289C11.6834 1.90237 12.3166 1.90237 12.7071 2.29289L14.7071 4.29289C14.9931 4.57889 15.0787 5.00901 14.9239 5.38268C14.7691 5.75636 14.4045 6 14 6H13V10C13 10.5523 12.5523 11 12 11C11.4477 11 11 10.5523 11 10V6H10C9.59554 6 9.2309 5.75636 9.07612 5.38268C8.92134 5.00901 9.0069 4.57889 9.29289 4.29289L11.2929 2.29289ZM15 18C15 17.4477 15.4477 17 16 17H16.01C16.5623 17 17.01 17.4477 17.01 18C17.01 18.5523 16.5623 19 16.01 19H16C15.4477 19 15 18.5523 15 18Z" fill="black"/>
</svg>

<svg
  width="24"
  height="24"
  viewBox="0 0 24 24"
  xmlns="http://www.w3.org/2000/svg"
>
  <path
    fill-rule="evenodd"
    clip-rule="evenodd"
    d="M3 3a1 1 0 0 1 1-1h3a1 1 0 0 1 0 2H5v10h14V4h-2a1 1 0 1 1 0-2h3a1 1 0 0 1 1 1v18a1 1 0 0 1-1 1H4a1 1 0 0 1-1-1V3zm16 13H5v4h14v-4zM11.293 2.293a1 1 0 0 1 1.414 0l2 2A1 1 0 0 1 14 6h-1v4a1 1 0 1 1-2 0V6h-1a1 1 0 0 1-.707-1.707l2-2zM15 18a1 1 0 0 1 1-1h.01a1 1 0 1 1 0 2H16a1 1 0 0 1-1-1z"
  />
</svg>
